X: 102
T: Paddy O Blarney
%R: jig
B: Thompson's Twenty four Country Dances (for the Year 1804) p.10 #2
S: http://folkopedia.efdss.org/images/2/28/Thompson24_1804.PDF  2014-8-2
Z: 2014 John Chambers <jc:trillian.mit.edu>
M: 6/8
L: 1/8
K: Dm
a |\
fed afd | afd eAA | afd afd | ddd ecA |\
FAc ded | fed cAA/G/ | FAc ded | fed cA :|
|: c/c/ |\
Acc Acc | AAA f2c/c/ | Acc Acc | AAA f2c/A/ |\
aff gee | fdd cAA/A/ | aff gee | fdd cA :|
% - - - - - - - - - - - - - - - - - - - - - - - - -
%%begintext align
%% The First Cu: set to the sec.d Lady & turn
%% set to the sec.d Gent: & turn Cross over one
%% Cu: and turn Right & left.
%%endtext
% - - - - - - - - - - - - - - - - - - - - - - - - -
